X:3725
T:LNXLV2- Lenox Love to Blantyre
O:england
S:from The Merry Medley, II, 1745
Q:1/4=60
L:1/4
M:C|
K:F
D/|F/4F/4F/ G/G/ A3/4G/4F/A/|G/4G/4G/ G/A/ d3/4c/4d/f/|\
F/4F/4F/ F/G/ A3/4G/4F/A/|GA/G/F/DC/::d/|\
c/d/f/g/ a/f/g/a/|g/f/g/a/ g/f/c/f/|\
c/f/a/f/ g/c/b/f/|g/c/b/f/ gf/:|]


